assets/Lemon/Flat/lemon_flat.svg

<svg width="32" height="32" viewBox="0 0 32 32" fill="none" xmlns="http://www.w3.org/2000/svg">
<path d="M7 2.49995L2 4.99986C2.82 7.31986 5.61662 8.81412 8.11662 7.81412L14.1166 5.31417C13.2966 2.98417 9.80214 1.27035 7 2.49995Z" fill="#86D72F"/>
<path d="M14.9236 4.5997C9.51985 6.50701 6.6904 12.4499 8.59216 17.8694L9.84454 21.4282C11.2477 25.4172 14.8309 28.0107 18.7736 28.3363C19.5157 28.3945 20.2115 28.7201 20.7681 29.2202C21.5682 29.9413 22.7162 30.2087 23.7947 29.8249C24.8731 29.4412 25.6037 28.5108 25.7776 27.4525C25.8936 26.7082 26.2299 26.0336 26.7749 25.5103C29.6391 22.7656 30.8103 18.4974 29.4072 14.5084L28.1548 10.9496C26.2531 5.51849 20.3274 2.68077 14.9236 4.5997Z" fill="#FCD53F"/>
</svg>

<svg xmlns="http://www.w3.org/2000/svg" width="32" height="32" fill="none"><path fill="#86D72F" d="M7 2.5 2 5c.82 2.32 3.617 3.814 6.117 2.814l6-2.5C13.297 2.984 9.802 1.27 7 2.5Z"/><path fill="#FCD53F" d="M14.924 4.6C9.52 6.507 6.69 12.45 8.592 17.87l1.253 3.558a10.376 10.376 0 0 0 8.929 6.908c.742.059 1.438.384 1.994.884.8.721 1.948.989 3.027.605a3.04 3.04 0 0 0 1.983-2.372 3.383 3.383 0 0 1 .997-1.943c2.864-2.744 4.035-7.013 2.632-11.002l-1.252-3.558c-1.902-5.432-7.828-8.27-13.231-6.35Z"/></svg>
